assets/img/braze_icons/anchor.svg

<svg fill="none" height="24" viewBox="0 0 24 24" width="24" xmlns="http://www.w3.org/2000/svg"><path clip-rule="evenodd" d="m16 5c0 1.86384-1.2748 3.42994-3 3.87398v12.07032c2.019-.2257 3.9135-1.1299 5.364-2.5803 1.4504-1.4505 2.3546-3.345 2.5803-5.364h-1.9443c-.5523 0-1-.4477-1-1s.4477-1 1-1h3c.5523 0 1 .4477 1 1 0 2.9174-1.1589 5.7153-3.2218 7.7782s-4.8608 3.2218-7.7782 3.2218c-2.91738 0-5.71527-1.1589-7.77817-3.2218s-3.22183-4.8608-3.22183-7.7782c0-.2652.10536-.5196.29289-.7071.18754-.1875.44189-.2929.70711-.2929h3c.55228 0 1 .4477 1 1s-.44772 1-1 1h-1.9443c.22567 2.019 1.12991 3.9135 2.58034 5.364 1.45043 1.4504 3.34494 2.3546 5.36396 2.5803v-12.07032c-1.72523-.44404-3-2.01014-3-3.87398 0-2.20914 1.79086-4 4-4 2.2091 0 4 1.79086 4 4zm-4-2c-1.1046 0-2 .89543-2 2s.8954 2 2 2 2-.89543 2-2-.8954-2-2-2z" fill="#801ed7" fill-rule="evenodd"/></svg>

<svg width="24" height="24" viewBox="0 0 24 24" fill="none" xmlns="http://www.w3.org/2000/svg">
<path fill-rule="evenodd" clip-rule="evenodd" d="M16 5C16 6.86384 14.7252 8.42994 13 8.87398V20.9443C15.019 20.7186 16.9135 19.8144 18.364 18.364C19.8144 16.9135 20.7186 15.019 20.9443 13H19C18.4477 13 18 12.5523 18 12C18 11.4477 18.4477 11 19 11H22C22.5523 11 23 11.4477 23 12C23 14.9174 21.8411 17.7153 19.7782 19.7782C17.7153 21.8411 14.9174 23 12 23C9.08262 23 6.28473 21.8411 4.22183 19.7782C2.15893 17.7153 1 14.9174 1 12C1 11.7348 1.10536 11.4804 1.29289 11.2929C1.48043 11.1054 1.73478 11 2 11H5C5.55228 11 6 11.4477 6 12C6 12.5523 5.55228 13 5 13H3.0557C3.28137 15.019 4.18561 16.9135 5.63604 18.364C7.08647 19.8144 8.98098 20.7186 11 20.9443V8.87398C9.27477 8.42994 8 6.86384 8 5C8 2.79086 9.79086 1 12 1C14.2091 1 16 2.79086 16 5ZM12 3C10.8954 3 10 3.89543 10 5C10 6.10457 10.8954 7 12 7C13.1046 7 14 6.10457 14 5C14 3.89543 13.1046 3 12 3Z" fill="#801ED7"/>
</svg>
